X:9872
T:Lord McDonald's Reel. JMT075
M:4/4
L:1/8
Q:200
S:J.Moore,Tyneside,1841.(52)
R:Reel
O:England
A:Northumbria
Z:C.G.P
K:G
B/c/|d3e dBgB|dB gf/g/ aAAB/c/|d3e dBgB|A/B/c BA BGG:|!
|G|DGBG AGBG|DGBG AGEG|DGBG AGBG|DEDC B,G,G,G|!
DGBG AGBG|DGBG AGEc|BAGF GFED|EFGA BGG|]
